!!!COM: the-cure
!!!OTL: just-like-heaven
!!!RNB: hooktheoryid: _QLgnRPyg-V
**kern	**text
*clefG2	*
*k[f#c#g#]	*
*M4/4	*
=1	=1
8cc#	A
8cc#	.
8cc#	.
4b	.
8b	.
4a	.
=2	=2
8g#	E
8g#	.
8g#	.
4f#	.
8f#	.
4e	.
=3	=3
4d	Bm
4d	.
8c#	.
4d	.
[8B	.
=4	=4
8B]	D
4B	.
4A	.
8A	.
4B	.
=5	=5
8cc#	A
8cc#	.
8cc#	.
4b	.
8b	.
4a	.
=6	=6
8g#	E
8g#	.
8g#	.
4f#	.
8f#	.
4e	.
=7	=7
4d	Bm
4d	.
8c#	.
4d	.
[8B	.
=8	=8
8B]	D
4B	.
4A	.
8A	.
4B	.
=9	=9
8c#	A
8c#	.
8c#	.
4d	.
8d	.
4e	.
=10	=10
8f#	E
8f#	.
8f#	.
4g#	.
8g#	.
4a	.
=11	=11
8b	Bm
8b	.
8b	.
4cc#	.
8cc#	.
4dd	.
=12	=12
8ee	D
8ee	.
8ee	.
4dd	.
8dd	.
8dd	.
8dd	.
=13	=13
8cc#	A
8cc#	.
8cc#	.
4b	.
8b	.
4a	.
=14	=14
8g#	E
8g#	.
8g#	.
4f#	.
8f#	.
8e	.
8e	.
=15	=15
4d	Bm
8d	.
8d	.
8c#	.
4d	.
[8B	.
=16	=16
8B]	D
4B	.
4A	.
8A	.
4B	.
=17	=17
1r	.
*-	*-